documentation/public/assets/images/input-11-do-and-dont-04.svg

<svg width="294" height="96" viewBox="0 0 294 96" fill="none" xmlns="http://www.w3.org/2000/svg">
<rect x="1" y="29" width="292" height="39" rx="3.5" fill="white"/>
<path d="M16.0227 54.5L12.8409 42.8636H14.2727L16.7045 52.3409H16.8182L19.2955 42.8636H20.8864L23.3636 52.3409H23.4773L25.9091 42.8636H27.3409L24.1591 54.5H22.7045L20.1364 45.2273H20.0455L17.4773 54.5H16.0227ZM28.3679 54.5V45.7727H29.6634V47.0909H29.7543C29.9134 46.6591 30.2012 46.3087 30.6179 46.0398C31.0346 45.7708 31.5043 45.6364 32.027 45.6364C32.1255 45.6364 32.2486 45.6383 32.3963 45.642C32.544 45.6458 32.6558 45.6515 32.7315 45.6591V47.0227C32.6861 47.0114 32.5819 46.9943 32.419 46.9716C32.2599 46.9451 32.0914 46.9318 31.9134 46.9318C31.4891 46.9318 31.1103 47.0208 30.777 47.1989C30.4474 47.3731 30.1861 47.6155 29.9929 47.9261C29.8035 48.233 29.7088 48.5833 29.7088 48.9773V54.5H28.3679ZM34.321 54.5V45.7727H35.6619V54.5H34.321ZM35.0028 44.3182C34.7415 44.3182 34.5161 44.2292 34.3267 44.0511C34.1411 43.8731 34.0483 43.6591 34.0483 43.4091C34.0483 43.1591 34.1411 42.9451 34.3267 42.767C34.5161 42.589 34.7415 42.5 35.0028 42.5C35.2642 42.5 35.4877 42.589 35.6733 42.767C35.8627 42.9451 35.9574 43.1591 35.9574 43.4091C35.9574 43.6591 35.8627 43.8731 35.6733 44.0511C35.4877 44.2292 35.2642 44.3182 35.0028 44.3182ZM41.9134 45.7727V46.9091H37.3906V45.7727H41.9134ZM38.7088 43.6818H40.0497V52C40.0497 52.3788 40.1046 52.6629 40.2145 52.8523C40.3281 53.0379 40.4721 53.1629 40.6463 53.2273C40.8243 53.2879 41.0118 53.3182 41.2088 53.3182C41.3565 53.3182 41.4777 53.3106 41.5724 53.2955C41.6671 53.2765 41.7429 53.2614 41.7997 53.25L42.0724 54.4545C41.9815 54.4886 41.8546 54.5227 41.6918 54.5568C41.5289 54.5947 41.3224 54.6136 41.0724 54.6136C40.6937 54.6136 40.3224 54.5322 39.9588 54.3693C39.599 54.2064 39.2997 53.9583 39.0611 53.625C38.8262 53.2917 38.7088 52.8712 38.7088 52.3636V43.6818ZM47.4957 54.6818C46.6548 54.6818 45.9295 54.4962 45.3196 54.125C44.7135 53.75 44.2457 53.2273 43.9162 52.5568C43.5904 51.8826 43.4276 51.0985 43.4276 50.2045C43.4276 49.3106 43.5904 48.5227 43.9162 47.8409C44.2457 47.1553 44.7041 46.6212 45.2912 46.2386C45.8821 45.8523 46.5715 45.6591 47.3594 45.6591C47.8139 45.6591 48.2628 45.7348 48.706 45.8864C49.1491 46.0379 49.5526 46.2841 49.9162 46.625C50.2798 46.9621 50.5696 47.4091 50.7855 47.9659C51.0014 48.5227 51.1094 49.2083 51.1094 50.0227V50.5909H44.3821V49.4318H49.7457C49.7457 48.9394 49.6473 48.5 49.4503 48.1136C49.2571 47.7273 48.9806 47.4223 48.6207 47.1989C48.2647 46.9754 47.8442 46.8636 47.3594 46.8636C46.8253 46.8636 46.3632 46.9962 45.973 47.2614C45.5866 47.5227 45.2893 47.8636 45.081 48.2841C44.8726 48.7045 44.7685 49.1553 44.7685 49.6364V50.4091C44.7685 51.0682 44.8821 51.6269 45.1094 52.0852C45.3404 52.5398 45.6605 52.8864 46.0696 53.125C46.4787 53.3598 46.9541 53.4773 47.4957 53.4773C47.848 53.4773 48.1662 53.428 48.4503 53.3295C48.7382 53.2273 48.9863 53.0758 49.1946 52.875C49.4029 52.6705 49.5639 52.4167 49.6776 52.1136L50.973 52.4773C50.8366 52.9167 50.6075 53.303 50.2855 53.6364C49.9635 53.9659 49.5658 54.2235 49.0923 54.4091C48.6188 54.5909 48.0866 54.6818 47.4957 54.6818ZM58.9901 49.25V54.5H57.6491V42.8636H58.9901V47.1364H59.1037C59.3082 46.6856 59.6151 46.3277 60.0241 46.0625C60.437 45.7936 60.9863 45.6591 61.6719 45.6591C62.2666 45.6591 62.7874 45.7784 63.2344 46.017C63.6813 46.2519 64.0279 46.6136 64.2741 47.1023C64.5241 47.5871 64.6491 48.2045 64.6491 48.9545V54.5H63.3082V49.0455C63.3082 48.3523 63.1283 47.8163 62.7685 47.4375C62.4124 47.0549 61.9181 46.8636 61.2855 46.8636C60.8461 46.8636 60.4522 46.9564 60.1037 47.142C59.759 47.3277 59.4863 47.5985 59.2855 47.9545C59.0885 48.3106 58.9901 48.7424 58.9901 49.25ZM70.7614 54.6818C69.9205 54.6818 69.1951 54.4962 68.5852 54.125C67.9792 53.75 67.5114 53.2273 67.1818 52.5568C66.8561 51.8826 66.6932 51.0985 66.6932 50.2045C66.6932 49.3106 66.8561 48.5227 67.1818 47.8409C67.5114 47.1553 67.9697 46.6212 68.5568 46.2386C69.1477 45.8523 69.8371 45.6591 70.625 45.6591C71.0795 45.6591 71.5284 45.7348 71.9716 45.8864C72.4148 46.0379 72.8182 46.2841 73.1818 46.625C73.5455 46.9621 73.8352 47.4091 74.0511 47.9659C74.267 48.5227 74.375 49.2083 74.375 50.0227V50.5909H67.6477V49.4318H73.0114C73.0114 48.9394 72.9129 48.5 72.7159 48.1136C72.5227 47.7273 72.2462 47.4223 71.8864 47.1989C71.5303 46.9754 71.1098 46.8636 70.625 46.8636C70.0909 46.8636 69.6288 46.9962 69.2386 47.2614C68.8523 47.5227 68.5549 47.8636 68.3466 48.2841C68.1383 48.7045 68.0341 49.1553 68.0341 49.6364V50.4091C68.0341 51.0682 68.1477 51.6269 68.375 52.0852C68.6061 52.5398 68.9261 52.8864 69.3352 53.125C69.7443 53.3598 70.2197 53.4773 70.7614 53.4773C71.1136 53.4773 71.4318 53.428 71.7159 53.3295C72.0038 53.2273 72.2519 53.0758 72.4602 52.875C72.6686 52.6705 72.8295 52.4167 72.9432 52.1136L74.2386 52.4773C74.1023 52.9167 73.8731 53.303 73.5511 53.6364C73.2292 53.9659 72.8314 54.2235 72.358 54.4091C71.8845 54.5909 71.3523 54.6818 70.7614 54.6818ZM76.4148 54.5V45.7727H77.7102V47.0909H77.8011C77.9602 46.6591 78.2481 46.3087 78.6648 46.0398C79.0814 45.7708 79.5511 45.6364 80.0739 45.6364C80.1723 45.6364 80.2955 45.6383 80.4432 45.642C80.5909 45.6458 80.7027 45.6515 80.7784 45.6591V47.0227C80.733 47.0114 80.6288 46.9943 80.4659 46.9716C80.3068 46.9451 80.1383 46.9318 79.9602 46.9318C79.536 46.9318 79.1572 47.0208 78.8239 47.1989C78.4943 47.3731 78.233 47.6155 78.0398 47.9261C77.8504 48.233 77.7557 48.5833 77.7557 48.9773V54.5H76.4148ZM85.7614 54.6818C84.9205 54.6818 84.1951 54.4962 83.5852 54.125C82.9792 53.75 82.5114 53.2273 82.1818 52.5568C81.8561 51.8826 81.6932 51.0985 81.6932 50.2045C81.6932 49.3106 81.8561 48.5227 82.1818 47.8409C82.5114 47.1553 82.9697 46.6212 83.5568 46.2386C84.1477 45.8523 84.8371 45.6591 85.625 45.6591C86.0795 45.6591 86.5284 45.7348 86.9716 45.8864C87.4148 46.0379 87.8182 46.2841 88.1818 46.625C88.5455 46.9621 88.8352 47.4091 89.0511 47.9659C89.267 48.5227 89.375 49.2083 89.375 50.0227V50.5909H82.6477V49.4318H88.0114C88.0114 48.9394 87.9129 48.5 87.7159 48.1136C87.5227 47.7273 87.2462 47.4223 86.8864 47.1989C86.5303 46.9754 86.1098 46.8636 85.625 46.8636C85.0909 46.8636 84.6288 46.9962 84.2386 47.2614C83.8523 47.5227 83.5549 47.8636 83.3466 48.2841C83.1383 48.7045 83.0341 49.1553 83.0341 49.6364V50.4091C83.0341 51.0682 83.1477 51.6269 83.375 52.0852C83.6061 52.5398 83.9261 52.8864 84.3352 53.125C84.7443 53.3598 85.2197 53.4773 85.7614 53.4773C86.1136 53.4773 86.4318 53.428 86.7159 53.3295C87.0038 53.2273 87.2519 53.0758 87.4602 52.875C87.6686 52.6705 87.8295 52.4167 87.9432 52.1136L89.2386 52.4773C89.1023 52.9167 88.8731 53.303 88.5511 53.6364C88.2292 53.9659 87.8314 54.2235 87.358 54.4091C86.8845 54.5909 86.3523 54.6818 85.7614 54.6818ZM92.392 54.5909C92.1117 54.5909 91.8712 54.4905 91.6705 54.2898C91.4697 54.089 91.3693 53.8485 91.3693 53.5682C91.3693 53.2879 91.4697 53.0473 91.6705 52.8466C91.8712 52.6458 92.1117 52.5455 92.392 52.5455C92.6723 52.5455 92.9129 52.6458 93.1136 52.8466C93.3144 53.0473 93.4148 53.2879 93.4148 53.5682C93.4148 53.7538 93.3674 53.9242 93.2727 54.0795C93.1818 54.2348 93.0587 54.3598 92.9034 54.4545C92.7519 54.5455 92.5814 54.5909 92.392 54.5909ZM96.7983 54.5909C96.518 54.5909 96.2775 54.4905 96.0767 54.2898C95.8759 54.089 95.7756 53.8485 95.7756 53.5682C95.7756 53.2879 95.8759 53.0473 96.0767 52.8466C96.2775 52.6458 96.518 52.5455 96.7983 52.5455C97.0786 52.5455 97.3191 52.6458 97.5199 52.8466C97.7206 53.0473 97.821 53.2879 97.821 53.5682C97.821 53.7538 97.7737 53.9242 97.679 54.0795C97.5881 54.2348 97.465 54.3598 97.3097 54.4545C97.1581 54.5455 96.9877 54.5909 96.7983 54.5909ZM101.205 54.5909C100.924 54.5909 100.684 54.4905 100.483 54.2898C100.282 54.089 100.182 53.8485 100.182 53.5682C100.182 53.2879 100.282 53.0473 100.483 52.8466C100.684 52.6458 100.924 52.5455 101.205 52.5455C101.485 52.5455 101.725 52.6458 101.926 52.8466C102.127 53.0473 102.227 53.2879 102.227 53.5682C102.227 53.7538 102.18 53.9242 102.085 54.0795C101.994 54.2348 101.871 54.3598 101.716 54.4545C101.564 54.5455 101.394 54.5909 101.205 54.5909Z" fill="#757575"/>
<rect x="1" y="29" width="292" height="39" rx="3.5" stroke="#545454"/>
</svg>

<svg width="294" height="96" fill="none" xmlns="http://www.w3.org/2000/svg"><rect x="1" y="29" width="292" height="39" rx="3.5" fill="#fff"/><path d="m16.02 54.5-3.18-11.64h1.43l2.43 9.48h.12l2.48-9.48h1.59l2.47 9.48h.12l2.43-9.48h1.43L24.16 54.5H22.7l-2.56-9.27h-.1l-2.56 9.27h-1.46Zm12.35 0v-8.73h1.3v1.32h.08c.16-.43.45-.78.87-1.05.41-.27.88-.4 1.4-.4a15.24 15.24 0 0 1 .71.02v1.36a4 4 0 0 0-.82-.09c-.42 0-.8.1-1.13.27a1.96 1.96 0 0 0-1.07 1.78v5.52h-1.34Zm5.95 0v-8.73h1.34v8.73h-1.34ZM35 44.32a.95.95 0 0 1-.67-.27.86.86 0 0 1-.28-.64c0-.25.1-.46.28-.64a.95.95 0 0 1 .67-.27c.26 0 .49.09.67.27a.85.85 0 0 1 0 1.28.93.93 0 0 1-.67.27Zm6.91 1.45v1.14H37.4v-1.14h4.52Zm-3.2-2.09h1.34V52c0 .38.05.66.16.85.12.19.26.31.44.38.17.06.36.09.56.09.15 0 .27 0 .36-.02l.23-.05.27 1.2a2.73 2.73 0 0 1-1 .16 2.7 2.7 0 0 1-1.11-.24 2.21 2.21 0 0 1-.9-.74 2.14 2.14 0 0 1-.35-1.27v-8.68Zm8.79 11a3.74 3.74 0 0 1-3.58-2.13 5.35 5.35 0 0 1-.5-2.35c0-.89.17-1.68.5-2.36a3.7 3.7 0 0 1 3.44-2.18 4 4 0 0 1 1.35.23 3.34 3.34 0 0 1 2.08 2.08c.21.55.32 1.24.32 2.05v.57h-6.73v-1.16h5.37c0-.5-.1-.93-.3-1.32a2.23 2.23 0 0 0-2.1-1.25 2.46 2.46 0 0 0-2.27 1.42 3 3 0 0 0-.31 1.36v.77c0 .66.11 1.22.34 1.68.23.45.55.8.96 1.03.4.24.88.36 1.43.36.35 0 .67-.05.95-.15.29-.1.54-.25.74-.45.21-.21.37-.46.49-.77l1.3.37a2.9 2.9 0 0 1-.7 1.16c-.32.33-.71.58-1.19.77-.47.18-1 .27-1.6.27Zm11.49-5.43v5.25h-1.34V42.86h1.34v4.28h.11c.2-.45.52-.81.92-1.08.42-.27.97-.4 1.65-.4.6 0 1.12.12 1.56.36.45.23.8.6 1.04 1.08.25.49.38 1.1.38 1.85v5.55H63.3v-5.45c0-.7-.18-1.23-.54-1.61a1.93 1.93 0 0 0-1.48-.58c-.44 0-.84.1-1.19.28a2.1 2.1 0 0 0-.81.81c-.2.36-.3.8-.3 1.3Zm11.77 5.43a3.74 3.74 0 0 1-3.58-2.13 5.35 5.35 0 0 1-.49-2.35c0-.89.17-1.68.5-2.36a3.7 3.7 0 0 1 3.44-2.18c.45 0 .9.07 1.34.23a3.34 3.34 0 0 1 2.08 2.08c.22.55.33 1.24.33 2.05v.57h-6.73v-1.16H73c0-.5-.1-.93-.3-1.32a2.23 2.23 0 0 0-2.08-1.25c-.54 0-1 .14-1.4.4-.38.26-.68.6-.88 1.02a3 3 0 0 0-.32 1.36v.77c0 .66.12 1.22.34 1.68.24.45.56.8.97 1.03.4.24.88.36 1.42.36.35 0 .67-.05.96-.15.28-.1.53-.25.74-.45.2-.21.37-.46.48-.77l1.3.37a2.99 2.99 0 0 1-1.89 1.93c-.47.18-1 .27-1.59.27Zm5.65-.18v-8.73h1.3v1.32h.1c.15-.43.44-.78.85-1.05.42-.27.9-.4 1.41-.4a15.25 15.25 0 0 1 .7.02v1.36a4 4 0 0 0-.81-.09c-.42 0-.8.1-1.14.27a1.96 1.96 0 0 0-1.07 1.78v5.52h-1.34Zm9.35.18a3.74 3.74 0 0 1-3.58-2.13 5.35 5.35 0 0 1-.49-2.35c0-.89.17-1.68.5-2.36a3.7 3.7 0 0 1 3.44-2.18c.45 0 .9.07 1.34.23a3.34 3.34 0 0 1 2.08 2.08c.22.55.33 1.24.33 2.05v.57h-6.73v-1.16H88c0-.5-.1-.93-.3-1.32a2.23 2.23 0 0 0-2.08-1.25c-.54 0-1 .14-1.4.4-.38.26-.68.6-.88 1.02a3 3 0 0 0-.32 1.36v.77c0 .66.12 1.22.34 1.68.24.45.56.8.97 1.03.4.24.88.36 1.42.36.35 0 .67-.05.96-.15.28-.1.53-.25.74-.45.2-.21.37-.46.48-.77l1.3.37a2.99 2.99 0 0 1-1.89 1.93c-.47.18-1 .27-1.59.27Zm6.63-.09a.98.98 0 0 1-.72-.3.98.98 0 0 1-.3-.72c0-.28.1-.52.3-.72.2-.2.44-.3.72-.3.28 0 .52.1.72.3.2.2.3.44.3.72a1.06 1.06 0 0 1-.51.89.97.97 0 0 1-.5.13Zm4.4 0a.98.98 0 0 1-.71-.3.98.98 0 0 1-.3-.72c0-.28.1-.52.3-.72.2-.2.44-.3.72-.3.28 0 .52.1.72.3.2.2.3.44.3.72a1.06 1.06 0 0 1-.51.89.97.97 0 0 1-.51.13Zm4.41 0a.98.98 0 0 1-.72-.3.98.98 0 0 1-.3-.72c0-.28.1-.52.3-.72a1.02 1.02 0 0 1 1.75.72c0 .18-.05.35-.15.51a.97.97 0 0 1-.88.51Z" fill="#757575"/><rect x="1" y="29" width="292" height="39" rx="3.5" stroke="#545454"/></svg>
